X: 41887
T: Volunteers, The
R: slip jig
M: 9/8
K: Adorian
E(c/B/)|:"Ador"[A2e2]A/A/A/e3d(c/B)|"Ador"[A2e2]A/A/e/A3A(G/F)|
"Ador"[A2e2]A2e/e/e/g3e(g<a)|"D"[A2e2](g/f)f3e(d/c)|"Ador"[A2e2]A/A/A/e3B(c/d)|
"Ador"[A2e2]A/A/e/A3a(g/f)|"C"c2A/A/cee"G"(d<B)|"Ador"A2(B/A)A3A(c<d):|
|:"F"[a2c2]c/c/c[a2c2]a(b<a)|"G"g2c/c/gg2(=f/e)"G7"d3/2
[1 "Am"c2A/A/c"C"e2e(g<a)|"D"f2(g/f)f2(d/c2):|
[2 "Am"cA/A/c"C"e2e>(dB2)|"Ador"A3(B<A)A4||

